X: 39276
T: Táim In Arrears
R: slip jig
M: 9/8
K: Amajor
|:~E2A ABA GAB|cBc ABc d2e|EAA ABA GAB|{e}cBc dBG A2e:|
|:efe dBA GEE|efe dBc d2e|efe dBA GEB|{e}cBc dBG A3:|

